dist/img/content/how-it-works/02.svg

<svg width="27" height="45" viewBox="0 0 27 45" fill="none" xmlns="http://www.w3.org/2000/svg">
<g clip-path="url(#clip0_61_1827)">
<path d="M4.896 2.10938L0.677246 6.32812V14.7656H7.7085V9.14062H16.146V15.4688L0.677246 30.2344V40.0781H23.1772V33.0469H8.41162L23.1772 18.2812V6.32812L18.9585 2.10938H4.896Z" fill="#FFD87D"/>
<path d="M0.677246 40.0781L3.48975 42.8906H25.9897L23.1772 40.0781H0.677246Z" fill="#9E964C"/>
<path d="M23.1772 33.0469L25.9897 35.8594V42.8906L23.1772 40.0781V33.0469Z" fill="#C0A767"/>
<path d="M0.677246 14.7656L3.48975 17.5781H10.521L7.7085 14.7656H0.677246Z" fill="#FFD87D"/>
<path d="M10.521 17.5781V11.9531L7.7085 9.14062V14.7656L10.521 17.5781Z" fill="#C0A767"/>
<path d="M16.146 11.9531H10.521L7.7085 9.14062H16.146V11.9531Z" fill="#9E964C"/>
<path d="M23.1772 6.32812L25.9897 9.14062V21.0938L23.1772 18.2812V6.32812Z" fill="#C0A767"/>
<path d="M25.9897 21.0938L14.0366 33.0469H8.41162L23.1772 18.2812L25.9897 21.0938Z" fill="#9E964C"/>
<path d="M19.4556 1.61227C19.3238 1.48039 19.145 1.40629 18.9585 1.40625H4.896C4.70953 1.40629 4.53072 1.48039 4.39889 1.61227L0.180137 5.83102C0.0482662 5.96285 -0.0258391 6.14166 -0.0258789 6.32812V14.7656C-0.0258391 14.9521 0.0482662 15.1309 0.180137 15.2627L2.99264 18.0752C3.12447 18.2071 3.30328 18.2812 3.48975 18.2812H10.521C10.7075 18.2812 10.8863 18.2072 11.0182 18.0753C11.15 17.9434 11.2241 17.7646 11.2241 17.5781V12.6562H15.4429V15.1678L0.19209 29.726C0.123278 29.7916 0.0684825 29.8705 0.0310181 29.9579C-0.00644627 30.0452 -0.0258019 30.1393 -0.0258789 30.2344V40.0781C-0.0258391 40.2646 0.0482662 40.4434 0.180137 40.5752L2.99264 43.3877C3.12447 43.5196 3.30328 43.5937 3.48975 43.5938H25.9897C26.1288 43.5938 26.2647 43.5526 26.3804 43.4754C26.496 43.3981 26.5862 43.2884 26.6394 43.1599C26.6667 43.0723 26.6846 42.982 26.6929 42.8906V35.8594C26.6928 35.6729 26.6187 35.4941 26.4869 35.3623L23.6744 32.5498C23.5425 32.4179 23.3637 32.3438 23.1772 32.3438H15.734L26.4819 21.5859C26.6144 21.4561 26.6902 21.2792 26.6929 21.0938V9.14062C26.6928 8.95416 26.6187 8.77535 26.4869 8.64352L19.4556 1.61227ZM3.78084 16.875L2.37459 15.4688H7.4174L8.82365 16.875H3.78084ZM9.81787 15.8808L8.41162 14.4745V10.838L9.81787 12.2442V15.8808ZM10.8121 11.25L9.40584 9.84375H15.4429V11.25H10.8121ZM23.8804 34.7442L25.2866 36.1505V41.1933L23.8804 39.787V34.7442ZM24.2924 42.1875H3.78084L2.37459 40.7812H22.8862L24.2924 42.1875ZM22.4741 33.75V39.375H1.38037V30.5353L16.6312 15.9806C16.7004 15.9146 16.7554 15.8352 16.7929 15.7472C16.8304 15.6591 16.8495 15.5644 16.8491 15.4688V9.14062C16.8491 8.95414 16.775 8.7753 16.6432 8.64344C16.5113 8.51158 16.3325 8.4375 16.146 8.4375H7.7085C7.52202 8.4375 7.34317 8.51158 7.21131 8.64344C7.07945 8.7753 7.00537 8.95414 7.00537 9.14062V14.0625H1.38037V6.61922L5.18709 2.8125H18.6674L22.4741 6.61922V17.9902L7.91451 32.5498C7.81621 32.6481 7.74927 32.7734 7.72215 32.9097C7.69503 33.0461 7.70895 33.1875 7.76216 33.3159C7.81537 33.4444 7.90546 33.5542 8.02106 33.6315C8.13667 33.7087 8.27258 33.75 8.41162 33.75H22.4741ZM13.7455 32.3438H10.109L23.1772 19.2755L24.9955 21.0938L13.7455 32.3438ZM25.2866 19.3964L23.8804 17.9902V8.02547L25.2866 9.43172V19.3964Z" fill="#222831"/>
</g>
<defs>
<clipPath id="clip0_61_1827">
<rect width="26.6667" height="45" fill="white"/>
</clipPath>
</defs>
</svg>

<svg width="27" height="45" fill="none" xmlns="http://www.w3.org/2000/svg"><g clip-path="url(#clip0_61_1827)"><path d="M4.896 2.11L.677 6.327v8.438h7.031V9.14h8.438v6.328L.677 30.234v9.844h22.5v-7.031H8.412L23.177 18.28V6.328L18.96 2.11H4.896z" fill="#FFD87D"/><path d="M.677 40.078l2.813 2.813h22.5l-2.813-2.813H.677z" fill="#9E964C"/><path d="M23.177 33.047l2.813 2.812v7.032l-2.813-2.813v-7.031z" fill="#C0A767"/><path d="M.677 14.766l2.813 2.812h7.031l-2.813-2.812H.678z" fill="#FFD87D"/><path d="M10.521 17.578v-5.625L7.708 9.141v5.625l2.813 2.812z" fill="#C0A767"/><path d="M16.146 11.953h-5.625L7.708 9.141h8.438v2.812z" fill="#9E964C"/><path d="M23.177 6.328l2.813 2.813v11.953l-2.813-2.813V6.328z" fill="#C0A767"/><path d="M25.99 21.094L14.037 33.047H8.412L23.177 18.28l2.813 2.813z" fill="#9E964C"/><path d="M19.456 1.612a.703.703 0 00-.497-.206H4.896a.703.703 0 00-.497.206L.18 5.831a.703.703 0 00-.206.497v8.438c0 .186.074.365.206.497l2.813 2.812a.7.7 0 00.497.206h7.031a.703.703 0 00.703-.703v-4.922h4.219v2.512L.193 29.726a.703.703 0 00-.219.508v9.844c0 .187.074.365.206.497l2.813 2.813a.7.7 0 00.497.206h22.5a.704.704 0 00.65-.434 1.3 1.3 0 00.053-.27v-7.03a.704.704 0 00-.206-.498l-2.813-2.812a.703.703 0 00-.497-.206h-7.443l10.748-10.758a.703.703 0 00.21-.492V9.14a.704.704 0 00-.205-.497l-7.031-7.032zM3.78 16.875l-1.406-1.406h5.042l1.407 1.406H3.78zm6.037-.994l-1.406-1.406v-3.637l1.406 1.406v3.637zm.994-4.631L9.406 9.844h6.037v1.406h-4.63zM23.88 34.744l1.407 1.407v5.042l-1.407-1.406v-5.043zm.412 7.444H3.781L2.375 40.78h20.511l1.406 1.407zm-1.818-8.438v5.625H1.38v-8.84l15.251-14.554a.704.704 0 00.218-.512V9.14a.703.703 0 00-.703-.704H7.708a.703.703 0 00-.703.704v4.921H1.38V6.62l3.807-3.806h13.48l3.807 3.806v11.37L7.914 32.55a.703.703 0 00.498 1.2h14.062zm-8.729-1.406H10.11l13.068-13.069 1.819 1.819-11.25 11.25zm11.542-12.948L23.88 17.99V8.025l1.407 1.407v9.964z" fill="#222831"/></g><defs><clipPath id="clip0_61_1827"><path fill="#fff" d="M0 0h26.667v45H0z"/></clipPath></defs></svg>
